X: 97
T: Jinse de shuguang The golden beam
L: 1/8
M: 3/4
K: C
E4G E [I:setbarnb 1]| 
D4C2 | 
A,4C A, | 
G,4A,2 | 
C4G, A, | 
C4D2 | 
E6- | 
E6 | 
G4A G | 
E4G2 | 
A4G E | 
D4E2 | 
A4c2 | 
E4D2 | 
C6- | 
C6 | 
c4c2 | 
c4e2 | 
d4c A | 
G4E2 |]

@@@ Tune index: 8765
